X:1
T:Jesus Is Calling
T:Jesus Is Calling
T:James Henry Fillmore, Sr.
T:Palmer Hartsough, 1900
T:Public Domain Courtesy of the Cyber Hymnal™
C:James Henry Fillmore, Sr.
Z:Public Domain
Z:Courtesy of the Cyber Hymnal™
%%score ( 1 2 ) ( 3 4 )
L:1/8
Q:1/4=80
M:6/8
K:C
V:1 treble 
V:2 treble 
V:3 bass 
V:4 bass 
V:1
 [EG]>[FA][EG] [CE]/[EG]/- [EG]2 | [FA]/[Ac]/- [Ac]2 [FA]/[EG]/- [EG]2 | [EG]>[^D^F][EG] [=FA] | %3
w: 1.~Je- sus is call- ing, *|call- ing, * call- ing, *|Je- sus is call-|
w: 2.~Je- sus is plead- ing, *|plead- ing, * plead- ing, *|Why should I wan-|
w: 3.~An- gels are watch- ing, *|watch- ing, * watch- ing, *|Hop- ing that I|
w: 4.~Je- sus is wait- ing, *|wait- ing, * wait- ing, *|O- pen now stand-|
 [EG][CE] | [B,D]3- [B,D]2 z | [EG]>[FA][EG] [CE]/[EG]/- [EG]2 | %6
w: ing to-|day; *|Why should I lin- ger, *|
w: der in|sin; *|While to His glo- ry, *|
w: will o-|bey; *|I will ac- cept Him, *|
w: eth the|door; *|Soon the night fall- eth, *|
 [FA]/[Ac]/- [Ac]2 [FA]/[EG]/- [EG]2 | [Gc]>[Gd][Ge] [Fd][Ec][DB] | c3- [Ec]2 z || %9
w: lin- ger, * lin- ger, *|I will a- rise and a-|way. *|
w: glo- ry, * glo- ry, *|Glad He would wel- come me|in. They|
w: love Him, * serve Him, *|Je- sus, I’m com- ing to-|day. *|
w: fall- eth, * fall- eth, *|Closed are the gates ev- er-|more. *|
"^Refrain" [Ec]>[Fd][Ge] [Fd]/[Ec-]/ [Gc]2 | [FA]/[Ac]/- [Ac]2 [FA]/[EG]/- [EG]2 | %11
w: ||
w: * are so hap- py, hap-|py, hap- * py, Who *|
w: ||
w: ||
 [Ec]>[Fd][Ge] [Gd][^Fc][FA] | d6 | [EG]>[FA][EG] [CE]/[EG]/- [EG]2 | %14
w: |||
w: do their Sav- ior o- bey;|Why|should I lin- ger, lin- *|
w: |||
w: |||
 [FA]/[Ac]/- [Ac]2 [FA]/[EG]/- [EG]2 | [Gc]>[Gd][Ge] [Fd][Ec][DB] | c3- [Ec]2 z |] %17
w: |||
w: ger, lin- * ger? I *|will a- rise and a- way.||
w: |||
w: |||
V:2
 x6 | x6 | x4 | x2 | x6 | x6 | x6 | x6 | E2 F x3 || x6 | x6 | x6 | (G2 ^F =F3) | x6 | x6 | x6 | %16
 E2 F x3 |] %17
V:3
 [C,C]>[C,C][C,C] [C,G,]/[C,C]/- [C,C]2 | [F,C]/[F,C]/- [F,C]2 [C,C]/[C,C]/- [C,C]2 | %2
 [C,C]>[C,C][C,C] [C,C] | [C,C][E,G,] | G,3- G,2 z | [C,C]>[C,C][C,C] [C,G,]/[C,C]/- [C,C]2 | %6
 [F,C]/[F,C]/- [F,C]2 [C,C]/[C,C]/- [C,C]2 | [E,C]>[D,B,][C,C] [F,A,]G,G, | (G,2 A, [C,G,]2) z || %9
 [C,G,]>[C,G,][C,C] [C,C]/[C,C-]/ [E,C]2 | [F,C]/[F,C-]/ [F,C]2 [C,C]/[C,C]/- [C,C]2 | %11
 [C,G,]>[C,G,][C,C] [D,B,][D,A,][D,C] | ([G,B,]2 [A,C] [G,B,]3) | %13
 [C,C]>[C,C][C,C] [C,G,]/[C,C]/- [C,C]2 | [F,C]/[F,C]/- [F,C]2 [C,C]/[C,C]/- [C,C]2 | %15
 [E,C]>[D,B,][C,C] [E,A,]G,G, | (G,2 A, [C,G,]2) z |] %17
V:4
 x6 | x6 | x4 | x2 | G,3- G,2 x | x6 | x6 | x4 G,G, | C,3- x3 || x6 | x6 | x6 | x6 | x6 | x6 | %15
 x4 G,G, | C,3- x3 |] %17

